findly-builder/apps/searchassist/src/assets/icons/content/carousel-data-inte.svg

<svg width="62" height="62" viewBox="0 0 62 62" fill="none" xmlns="http://www.w3.org/2000/svg">
<circle cx="31" cy="31" r="30.5" fill="white" stroke="#93D3A2"/>
<path d="M49.75 44.5417C49.75 47.4187 47.4187 49.75 44.5417 49.75H17.4583C14.5823 49.75 12.25 47.4187 12.25 44.5417V17.4583C12.25 14.5812 14.5823 12.25 17.4583 12.25H44.5417C47.4187 12.25 49.75 14.5812 49.75 17.4583V44.5417Z" fill="#93D3A2"/>
<path d="M44.5417 24.7503H17.4584C16.8834 24.7503 16.4167 24.2837 16.4167 23.7087V17.4587C16.4167 16.8837 16.8834 16.417 17.4584 16.417H44.5417C45.1168 16.417 45.5834 16.8837 45.5834 17.4587V23.7087C45.5834 24.2837 45.1168 24.7503 44.5417 24.7503ZM44.5417 35.167H17.4584C16.8834 35.167 16.4167 34.7003 16.4167 34.1253V27.8753C16.4167 27.3003 16.8834 26.8337 17.4584 26.8337H44.5417C45.1168 26.8337 45.5834 27.3003 45.5834 27.8753V34.1253C45.5834 34.7003 45.1168 35.167 44.5417 35.167ZM44.5417 45.5837H17.4584C16.8834 45.5837 16.4167 45.117 16.4167 44.542V38.292C16.4167 37.717 16.8834 37.2503 17.4584 37.2503H44.5417C45.1168 37.2503 45.5834 37.717 45.5834 38.292V44.542C45.5834 45.117 45.1168 45.5837 44.5417 45.5837Z" fill="#EAF6EC"/>
<path d="M45.2857 32.7856C42.9177 32.7856 40.6467 33.7263 38.9723 35.4008C37.2979 37.0752 36.3572 39.3462 36.3572 41.7142C36.3572 44.0822 37.2979 46.3532 38.9723 48.0277C40.6467 49.7021 42.9177 50.6428 45.2857 50.6428C47.6538 50.6428 49.9248 49.7021 51.5992 48.0277C53.2736 46.3532 54.2143 44.0822 54.2143 41.7142C54.2143 39.3462 53.2736 37.0752 51.5992 35.4008C49.9248 33.7263 47.6538 32.7856 45.2857 32.7856Z" fill="#FFDA2D"/>
<path d="M43.5002 36.3569H47.0717V47.0712H43.5002V36.3569Z" fill="white"/>
<path d="M39.9287 39.9282H50.643V43.4997H39.9287V39.9282Z" fill="white"/>
</svg>

<svg width="62" height="62" fill="none" xmlns="http://www.w3.org/2000/svg"><circle cx="31" cy="31" r="30.5" fill="#fff" stroke="#93D3A2"/><path d="M49.75 44.542a5.208 5.208 0 0 1-5.208 5.208H17.458a5.208 5.208 0 0 1-5.208-5.208V17.458a5.208 5.208 0 0 1 5.208-5.208h27.084a5.208 5.208 0 0 1 5.208 5.208v27.084Z" fill="#93D3A2"/><path d="M44.542 24.75H17.458a1.042 1.042 0 0 1-1.041-1.041v-6.25c0-.575.466-1.042 1.041-1.042h27.084c.575 0 1.041.467 1.041 1.042v6.25a1.04 1.04 0 0 1-1.041 1.041Zm0 10.417H17.458a1.042 1.042 0 0 1-1.041-1.042v-6.25a1.04 1.04 0 0 1 1.041-1.041h27.084a1.04 1.04 0 0 1 1.041 1.041v6.25c0 .575-.466 1.042-1.041 1.042Zm0 10.417H17.458a1.042 1.042 0 0 1-1.041-1.042v-6.25c0-.575.466-1.042 1.041-1.042h27.084c.575 0 1.041.467 1.041 1.042v6.25c0 .575-.466 1.042-1.041 1.042Z" fill="#EAF6EC"/><path d="M45.286 32.786a8.928 8.928 0 1 0 0 17.856 8.928 8.928 0 0 0 0-17.856Z" fill="#FFDA2D"/><path d="M43.5 36.357h3.572V47.07H43.5V36.357Z" fill="#fff"/><path d="M39.929 39.928h10.714V43.5H39.929v-3.572Z" fill="#fff"/></svg>
